src/assets/img/about_factory/business.svg

<svg width="100" height="105" viewBox="0 0 100 105" fill="none" xmlns="http://www.w3.org/2000/svg">
<path d="M80.1438 41.2131C78.8156 37.4845 75.5906 34.857 71.875 34.3211V23.953L96.6813 14.717L72.1656 4.88804H68.75V34.3634C64.9734 35.0248 61.8281 37.8184 60.6469 41.7327L52.7844 67.8134C52.2922 66.0998 51.2797 64.5735 49.8531 63.5114L42.3734 57.9421L45.0031 45.6112H49.4969C54.2562 45.6112 58.5391 42.8567 60.6719 38.4195L66.6156 26.0608C66.9906 25.2838 67.1875 24.4123 67.1875 23.5425C67.1875 20.441 64.7687 17.9194 61.7422 17.9194C59.6875 17.9194 57.8375 19.1102 56.9188 21.0274L51.8922 31.5079C51.0937 33.1743 49.4875 34.2087 47.7 34.2087H46.7031C48.7344 32.1367 50 29.2535 50 26.0641C50 19.7764 45.0938 14.6616 39.0625 14.6616C38.8797 14.6616 38.7031 14.6811 38.5219 14.6909C37.2281 10.8255 33.725 8.14589 29.6875 8.14589C29.3516 8.14589 29.0141 8.16869 28.6656 8.2143C26.8906 4.22344 23.0641 1.63019 18.75 1.63019C12.7188 1.63019 7.8125 6.74501 7.8125 13.0327C7.8125 13.088 7.825 13.1418 7.825 13.1956C4.25781 13.9481 1.5625 17.2402 1.5625 21.1773C1.5625 25.6682 5.06719 29.3219 9.375 29.3219H28.5859C29.1234 31.1984 30.1125 32.873 31.4234 34.2087H30.6078C24.6828 34.2087 19.075 37.4763 15.9703 42.7361L8.5875 55.243C8.07969 56.0982 7.8125 57.0837 7.8125 58.092C7.8125 58.8674 7.975 59.6036 8.25781 60.2715H1.5625V83.0765H21.3531L18.9391 93.4706C18.8141 94.0131 18.75 94.5685 18.75 95.1224V95.598C18.75 99.4716 21.7734 102.624 25.4875 102.624C28.6547 102.624 31.4281 100.278 32.0812 97.0461L37.1828 71.7831L40.625 74.1744V89.5922C40.625 93.1856 43.4281 96.1079 46.875 96.1079H98.4375V92.5568L80.1438 41.2131ZM71.875 8.26154L87.6937 14.6046L71.875 20.4948V8.26154ZM63.6281 42.7101C64.575 39.5727 67.3281 37.4665 70.4813 37.4665C73.4688 37.4665 76.175 39.4278 77.2156 42.3484L83.2062 59.1606C82.6828 60.6804 81.5984 63.5294 80.4641 63.5294C79.0594 63.5294 77.7937 59.4717 76.8688 56.5103C75.4469 51.9526 73.9766 47.2401 70.3016 47.2401C66.6281 47.2401 65.1578 51.9526 63.7375 56.5103C62.8141 59.4717 61.55 63.5294 60.1469 63.5294C59.5312 63.5294 58.8344 62.6514 58.1156 60.9964L63.6281 42.7101ZM9.375 26.0641C6.79063 26.0641 4.6875 23.8715 4.6875 21.1773C4.6875 18.483 6.79063 16.2905 9.375 16.2905C11.9594 16.2905 14.0625 18.483 14.0625 21.1773H17.1875C17.1875 17.25 14.5062 13.9612 10.95 13.1988C10.95 13.1434 10.9375 13.088 10.9375 13.0327C10.9375 8.54172 14.4422 4.88804 18.75 4.88804C22.1703 4.88804 25.1641 7.17179 26.1969 10.5714L26.6469 12.0537L28.0875 11.653C28.7016 11.4836 29.2094 11.4037 29.6875 11.4037C32.2234 11.4037 34.4344 12.9952 35.4062 15.3311C31.1703 16.9046 28.125 21.1154 28.125 26.0641H9.375ZM31.25 26.0641C31.25 21.5731 34.7547 17.9194 39.0625 17.9194C43.3703 17.9194 46.875 21.5731 46.875 26.0641C46.875 30.555 43.3703 34.2087 39.0625 34.2087C34.7547 34.2087 31.25 30.555 31.25 26.0641ZM25.0719 60.2715H18.4719L26.2031 47.605C26.5828 46.9827 27.0984 46.4843 27.6953 46.1422L25.0719 60.2715ZM25.5969 63.5294L25.5344 63.6613C23.6453 67.5984 19.8484 70.0451 15.625 70.0451C11.4016 70.0451 7.60469 67.5984 5.71719 63.6613L5.65312 63.5294H13.0281H13.6187H25.5969ZM4.6875 67.8981C7.34688 71.2781 11.3 73.3029 15.625 73.3029C19.95 73.3029 23.9031 71.2781 26.5625 67.8981V79.8186H4.6875V67.8981ZM43.75 89.5922V74.1744C43.75 73.083 43.2297 72.0698 42.3578 71.4638L37.9734 68.4161H34.6703L29.025 96.375C28.6734 98.1082 27.1859 99.3657 25.4875 99.3657C23.4969 99.3657 21.875 97.6749 21.875 95.5996V95.124C21.875 94.8259 21.9094 94.5278 21.9766 94.2379L24.5688 83.0765H29.6875V60.2715H28.2547L31.5812 42.3533H29.6875C27.1938 42.3533 24.9047 43.663 23.5672 45.8555L15.3844 59.2616C14.9969 59.8952 14.3375 60.2715 13.6187 60.2715H13.0281C11.8766 60.2715 10.9375 59.2925 10.9375 58.092C10.9375 57.688 11.0437 57.2938 11.2469 56.9501L18.6297 44.4432C21.1703 40.1396 25.7594 37.4665 30.6062 37.4665H47.7C50.6781 37.4665 53.3563 35.7415 54.6875 32.9642L59.7141 22.4837C60.1 21.679 60.8781 21.1773 61.7938 21.1773C63.0438 21.1773 64.0625 22.2377 64.0625 23.5425C64.0625 23.909 63.9797 24.2755 63.8219 24.6013L57.8781 36.9599C56.2797 40.2862 53.0672 42.3533 49.4984 42.3533H42.4969L38.875 59.3414L48.0375 66.1633C49.2656 67.0788 50 68.566 50 70.1412V89.5922C50 91.3889 48.5984 92.85 46.875 92.85C45.1516 92.85 43.75 91.3889 43.75 89.5922ZM52.2562 92.85C52.7938 91.8873 53.125 90.7845 53.125 89.5922V77.5511L56.8844 65.0817C57.6859 66.0297 58.7406 66.7872 60.1469 66.7872C63.8203 66.7872 65.2906 62.0747 66.7109 57.517C67.6344 54.5556 68.8984 50.4979 70.3016 50.4979C71.7063 50.4979 72.9719 54.5556 73.8969 57.517C75.3187 62.0747 76.7875 66.7872 80.4641 66.7872C82.4609 66.7872 83.8187 65.2967 84.7703 63.5522L95.2078 92.85H52.2562Z" fill="#626262"/>
<path d="M87.5 86.3331H90.625V89.5918H87.5V86.3331Z" fill="#626262"/>
<path d="M81.25 86.3331H84.375V89.5918H81.25V86.3331Z" fill="#626262"/>
<path d="M75 86.3331H78.125V89.5918H75V86.3331Z" fill="#626262"/>
</svg>

<svg width="100" height="105" fill="none" xmlns="http://www.w3.org/2000/svg"><path d="M80.144 41.213c-1.328-3.729-4.553-6.356-8.269-6.892V23.953l24.806-9.236-24.515-9.829H68.75v29.475c-3.777.662-6.922 3.455-8.103 7.37l-7.863 26.08c-.492-1.713-1.504-3.24-2.93-4.302l-7.48-5.569 2.63-12.33h4.493c4.76 0 9.042-2.755 11.175-7.193l5.944-12.358a5.828 5.828 0 00.572-2.518c0-3.102-2.42-5.624-5.446-5.624-2.054 0-3.904 1.191-4.823 3.108l-5.027 10.48c-.798 1.667-2.405 2.702-4.192 2.702h-.997A11.605 11.605 0 0050 26.064c0-6.288-4.906-11.402-10.938-11.402-.182 0-.359.02-.54.029-1.294-3.866-4.797-6.545-8.834-6.545-.336 0-.674.023-1.022.068-1.775-3.99-5.602-6.584-9.916-6.584-6.031 0-10.938 5.115-10.938 11.403 0 .055.013.109.013.163-3.567.752-6.263 4.044-6.263 7.981 0 4.491 3.505 8.145 7.813 8.145h19.21a11.494 11.494 0 002.838 4.887h-.815c-5.925 0-11.533 3.267-14.638 8.527L8.587 55.243a5.58 5.58 0 00-.774 2.849c0 .775.162 1.512.445 2.18H1.563v22.804h19.79L18.94 93.471a7.366 7.366 0 00-.189 1.651v.476c0 3.874 3.023 7.026 6.738 7.026 3.167 0 5.94-2.346 6.593-5.578l5.102-25.263 3.442 2.391v15.418c0 3.594 2.803 6.516 6.25 6.516h51.563v-3.551L80.144 41.213zM71.875 8.262l15.819 6.343-15.819 5.89V8.262zM63.628 42.71c.947-3.137 3.7-5.243 6.853-5.243 2.988 0 5.694 1.96 6.735 4.881l5.99 16.813c-.523 1.52-1.608 4.368-2.742 4.368-1.405 0-2.67-4.057-3.595-7.019-1.422-4.557-2.892-9.27-6.567-9.27-3.674 0-5.144 4.713-6.565 9.27-.923 2.962-2.187 7.02-3.59 7.02-.616 0-1.313-.879-2.031-2.534l5.512-18.286zM9.375 26.064c-2.584 0-4.688-2.192-4.688-4.887 0-2.694 2.104-4.886 4.688-4.886 2.584 0 4.688 2.192 4.688 4.886h3.124c0-3.927-2.68-7.216-6.237-7.978 0-.056-.012-.111-.012-.166 0-4.491 3.504-8.145 7.812-8.145 3.42 0 6.414 2.284 7.447 5.683l.45 1.483 1.44-.401c.615-.17 1.122-.25 1.6-.25 2.536 0 4.747 1.592 5.72 3.928-4.237 1.574-7.282 5.784-7.282 10.733H9.375zm21.875 0c0-4.49 3.505-8.145 7.813-8.145 4.307 0 7.812 3.654 7.812 8.145s-3.505 8.145-7.813 8.145c-4.307 0-7.812-3.654-7.812-8.145zm-6.178 34.208h-6.6l7.731-12.667a4.21 4.21 0 011.492-1.463l-2.623 14.13zm.525 3.257l-.063.132c-1.889 3.937-5.686 6.384-9.909 6.384-4.223 0-8.02-2.447-9.908-6.384l-.064-.132h19.944zM4.687 67.9c2.66 3.38 6.613 5.404 10.938 5.404s8.278-2.025 10.938-5.405v11.92H4.688v-11.92zM43.75 89.591V74.174a3.29 3.29 0 00-1.392-2.71l-4.385-3.048H34.67l-5.645 27.959c-.352 1.733-1.84 2.99-3.537 2.99-1.991 0-3.613-1.69-3.613-3.765v-.476c0-.298.034-.596.102-.886l2.592-11.162h5.119V60.272h-1.433l3.326-17.919h-1.893c-2.494 0-4.783 1.31-6.12 3.502l-8.184 13.407a2.064 2.064 0 01-1.765 1.01h-.59c-1.152 0-2.091-.98-2.091-2.18 0-.404.106-.798.309-1.142l7.383-12.507c2.54-4.303 7.13-6.976 11.976-6.976H47.7c2.978 0 5.656-1.725 6.987-4.503l5.027-10.48a2.268 2.268 0 012.08-1.307c1.25 0 2.269 1.06 2.269 2.366 0 .366-.083.733-.241 1.058L57.878 36.96c-1.598 3.326-4.81 5.393-8.38 5.393h-7.001l-3.622 16.988 9.163 6.822C49.266 67.08 50 68.566 50 70.141v19.451c0 1.797-1.402 3.258-3.125 3.258s-3.125-1.461-3.125-3.258zm8.506 3.258a6.655 6.655 0 00.869-3.258v-12.04l3.76-12.47c.8.948 1.856 1.705 3.262 1.705 3.673 0 5.144-4.712 6.564-9.27.923-2.961 2.187-7.02 3.59-7.02 1.405 0 2.67 4.059 3.596 7.02 1.422 4.558 2.89 9.27 6.567 9.27 1.997 0 3.355-1.49 4.306-3.235L95.208 92.85H52.256z" fill="#626262"/><path d="M87.5 86.333h3.125v3.259H87.5v-3.259zm-6.25 0h3.125v3.259H81.25v-3.259zm-6.25 0h3.125v3.259H75v-3.259z" fill="#626262"/></svg>
